public/icons/volume-loud.svg

<svg width="800px" height="800px" viewBox="0 0 24 24" fill="none" xmlns="http://www.w3.org/2000/svg">
<path d="M2.00299 11.7155C2.04033 9.87326 2.059 8.95215 2.67093 8.16363C2.78262 8.0197 2.9465 7.8487 3.08385 7.73274C3.83639 7.09741 4.82995 7.09741 6.81706 7.09741C7.527 7.09741 7.88197 7.09741 8.22035 7.00452C8.29067 6.98522 8.36024 6.96296 8.4289 6.93781C8.75936 6.81674 9.05574 6.60837 9.64851 6.19161C11.9872 4.54738 13.1565 3.72527 14.138 4.08241C14.3261 4.15088 14.5083 4.24972 14.671 4.37162C15.5194 5.00744 15.5839 6.48675 15.7128 9.44537C15.7606 10.5409 15.7931 11.4785 15.7931 12C15.7931 12.5215 15.7606 13.4591 15.7128 14.5546C15.5839 17.5132 15.5194 18.9926 14.671 19.6284C14.5083 19.7503 14.3261 19.8491 14.138 19.9176C13.1565 20.2747 11.9872 19.4526 9.64851 17.8084C9.05574 17.3916 8.75936 17.1833 8.4289 17.0622C8.36024 17.037 8.29067 17.0148 8.22035 16.9955C7.88197 16.9026 7.527 16.9026 6.81706 16.9026C4.82995 16.9026 3.83639 16.9026 3.08385 16.2673C2.9465 16.1513 2.78262 15.9803 2.67093 15.8364C2.059 15.0478 2.04033 14.1267 2.00299 12.2845C2.00103 12.1878 2 12.0928 2 12C2 11.9072 2.00103 11.8122 2.00299 11.7155Z" fill="#1C274C"/>
<path fill-rule="evenodd" clip-rule="evenodd" d="M19.4895 5.55219C19.7821 5.29218 20.217 5.33434 20.4608 5.64635L19.931 6.11713C20.4608 5.64635 20.4606 5.64602 20.4608 5.64635L20.4619 5.6477L20.4631 5.64921L20.4658 5.65275L20.4727 5.66184C20.4779 5.6688 20.4844 5.67756 20.4921 5.68814C20.5075 5.70929 20.5275 5.73772 20.5515 5.77358C20.5995 5.84529 20.6635 5.94667 20.7379 6.07889C20.8868 6.34345 21.077 6.73092 21.2644 7.25038C21.6397 8.29107 22 9.85136 22 12.0002C22 14.1491 21.6397 15.7094 21.2644 16.7501C21.077 17.2695 20.8868 17.657 20.7379 17.9216C20.6635 18.0538 20.5995 18.1552 20.5515 18.2269C20.5275 18.2627 20.5075 18.2912 20.4921 18.3123C20.4844 18.3229 20.4779 18.3317 20.4727 18.3386L20.4658 18.3477L20.4631 18.3513L20.4619 18.3528C20.4616 18.3531 20.4608 18.3541 19.931 17.8833L20.4608 18.3541C20.217 18.6661 19.7821 18.7083 19.4895 18.4483C19.1983 18.1895 19.1578 17.729 19.3977 17.417C19.3983 17.4163 19.3994 17.4148 19.4009 17.4127C19.4058 17.406 19.4154 17.3925 19.4291 17.372C19.4565 17.3311 19.5003 17.2625 19.5552 17.1649C19.6649 16.9698 19.8195 16.6587 19.977 16.2221C20.2913 15.3508 20.6207 13.9695 20.6207 12.0002C20.6207 10.0309 20.2913 8.64968 19.977 7.77836C19.8195 7.34181 19.6649 7.03066 19.5552 6.8356C19.5003 6.73802 19.4565 6.66934 19.4291 6.62845C19.4154 6.608 19.4058 6.59449 19.4009 6.58778C19.3994 6.58561 19.3983 6.58416 19.3977 6.5834C19.3977 6.5834 19.3977 6.58341 19.3977 6.5834" fill="#1C274C"/>
<path fill-rule="evenodd" clip-rule="evenodd" d="M17.7571 8.41595C18.0901 8.21871 18.51 8.34663 18.6949 8.70166L18.0921 9.0588C18.6949 8.70166 18.6948 8.70134 18.6949 8.70166L18.6956 8.70295L18.6963 8.70432L18.6978 8.7073L18.7014 8.71428L18.7102 8.73227C18.7169 8.74607 18.7251 8.76348 18.7345 8.78457C18.7533 8.82676 18.7772 8.88363 18.8042 8.95574C18.8584 9.10004 18.9251 9.3049 18.99 9.57476C19.1199 10.115 19.2415 10.9119 19.2415 12.0003C19.2415 13.0888 19.1199 13.8857 18.99 14.4259C18.9251 14.6958 18.8584 14.9007 18.8042 15.045C18.7772 15.1171 18.7533 15.1739 18.7345 15.2161C18.7251 15.2372 18.7169 15.2546 18.7102 15.2684L18.7014 15.2864L18.6978 15.2934L18.6963 15.2964L18.6956 15.2978C18.6954 15.2981 18.6949 15.299 18.0921 14.9419L18.6949 15.299C18.51 15.6541 18.0901 15.782 17.7571 15.5847C17.427 15.3892 17.3063 14.9474 17.4846 14.5938L17.4892 14.5838C17.4955 14.5697 17.5075 14.5415 17.5236 14.4987C17.5557 14.4132 17.6039 14.2688 17.6539 14.0606C17.7539 13.6448 17.8622 12.9709 17.8622 12.0003C17.8622 11.0298 17.7539 10.3559 17.6539 9.94007C17.6039 9.73193 17.5557 9.58748 17.5236 9.50197C17.5075 9.45918 17.4955 9.43102 17.4892 9.41691L17.4846 9.40687C17.3063 9.05332 17.427 8.61152 17.7571 8.41595Z" fill="#1C274C"/>
</svg>

<svg xmlns="http://www.w3.org/2000/svg" width="800" height="800" fill="none" viewBox="0 0 24 24"><path fill="#1C274C" d="M2.003 11.7155c.0373-1.8422.056-2.7634.668-3.5519.1116-.1439.2755-.3149.4129-.4309.7525-.6353 1.746-.6353 3.7332-.6353.7099 0 1.0649 0 1.4032-.0929a2.6306 2.6306 0 0 0 .2086-.0667c.3305-.121.6268-.3294 1.2196-.7462 2.3387-1.6442 3.508-2.4663 4.4895-2.1092a2.086 2.086 0 0 1 .533.2892c.8484.6358.9129 2.1151 1.0418 5.0738.0478 1.0955.0803 2.0331.0803 2.5546 0 .5215-.0325 1.4591-.0803 2.5546-.1289 2.9586-.1934 4.438-1.0418 5.0738a2.0868 2.0868 0 0 1-.533.2892c-.9815.3571-2.1508-.465-4.4895-2.1092-.5928-.4168-.8891-.6251-1.2196-.7462a2.6101 2.6101 0 0 0-.2086-.0667c-.3383-.0929-.6933-.0929-1.4032-.0929-1.9871 0-2.9807 0-3.7332-.6353-.1374-.116-.3013-.287-.413-.4309-.6119-.7886-.6306-1.7097-.668-3.5519a14.0605 14.0605 0 0 1 0-.569Z"/><path fill="#1C274C" fill-rule="evenodd" d="M19.4895 5.5522c.2926-.26.7275-.2179.9713.0941l-.5298.4708c.5298-.4707.5296-.471.5298-.4707l.0011.0013.0012.0015.0027.0035.0069.0091a2.5718 2.5718 0 0 1 .0788.1118c.048.0717.112.173.1864.3053.1489.2645.3391.652.5265 1.1715.3753 1.0407.7356 2.601.7356 4.7498 0 2.1489-.3603 3.7092-.7356 4.7499-.1874.5194-.3776.9069-.5265 1.1715a4.6547 4.6547 0 0 1-.1864.3053 2.6644 2.6644 0 0 1-.0788.1117l-.0069.0091-.0027.0036-.0012.0015c-.0003.0003-.0011.0013-.5309-.4695l.5298.4708c-.2438.312-.6787.3542-.9713.0942-.2912-.2588-.3317-.7193-.0918-1.0313a1.2254 1.2254 0 0 0 .0314-.045 3.1449 3.1449 0 0 0 .1261-.2071c.1097-.1951.2643-.5062.4218-.9428.3143-.8713.6437-2.2526.6437-4.2219 0-1.9693-.3294-3.3505-.6437-4.2218-.1575-.4366-.3121-.7477-.4218-.9428a3.1523 3.1523 0 0 0-.1261-.2072 1.283 1.283 0 0 0-.0314-.045M17.7571 8.416c.333-.1973.7529-.0694.9378.2857l-.6028.3571c.6028-.3571.6027-.3575.6028-.3571l.0007.0012.0007.0014.0015.003.0036.007.0088.018a1.761 1.761 0 0 1 .0243.0523c.0188.0422.0427.099.0697.1711.0542.1443.1209.3492.1858.619.1299.5403.2515 1.3372.2515 2.4256 0 1.0885-.1216 1.8854-.2515 2.4256-.0649.2699-.1316.4748-.1858.6191a3.0392 3.0392 0 0 1-.0697.1711 1.7492 1.7492 0 0 1-.0243.0523l-.0088.018-.0036.007-.0015.003-.0007.0014c-.0002.0003-.0007.0012-.6035-.3559l.6028.3571c-.1849.3551-.6048.483-.9378.2857-.3301-.1955-.4508-.6373-.2725-.9909l.0046-.01a1.579 1.579 0 0 0 .0344-.0851c.0321-.0855.0803-.2299.1303-.4381.1-.4158.2083-1.0897.2083-2.0603 0-.9705-.1083-1.6444-.2083-2.0602-.05-.2082-.0982-.3526-.1303-.4381a1.5802 1.5802 0 0 0-.0344-.085l-.0046-.0101c-.1783-.3536-.0576-.7954.2725-.991Z" clip-rule="evenodd"/></svg>
